X: 23915
T: Loch Ness Monster
R: jig
M: 6/8
K: Dmajor
dAA dAA BGG A3|dAA dAA BAA fee|dAA dAA BGG A2d|1 BGB cAe edd dfe:|2 BGB cAe edd d2e|
|:fAA Bff BAA faa|Add dcd fee ede|fAA Bff BAA faa|1 BGB cAe edd d2e:|2 BGB cAe edd d2B|
|:AdA BAd dAB B2A|AdA BAd BAA fee|AdA BAd dAB AdA|1 BGB cAe edd d2B:|2 BGB cAe edd d2f|
|:aAA faa AAA Bff|Add dcd fee efg|aAA faa AAA Bff|1 BGB cAe edd d2f:|2 BGB cAe edd f2e||

